X:201
T:The Ebenezer
M:C|
L:1/8
K:F
C2|\
F2F2 F2FF|A2c2 A2F2|G2G2 G2G2|E2G2 E2C2|
F2FF F2B2|A2c2 F3c |d2B2 G2F2|E2G2 C2C2|
FFF2 F4  |FFG2 C4  |F2FF F2B2|A2c6|
FFF2 F4  |FFG2 C4  |c2cc c2B2|A2F4||
